openmetadata-ui/src/main/resources/ui/src/assets/svg/question-circle.svg

<svg xmlns="http://www.w3.org/2000/svg" width="512" height="512" fill="#37352f"><path d="M256 0C114.509 0 0 114.496 0 256c0 141.489 114.496 256 256 256 141.491 0 256-114.496 256-256C512 114.509 397.504 0 256 0Zm0 476.279c-121.462 0-220.279-98.816-220.279-220.279S134.538 35.721 256 35.721c121.463 0 220.279 98.816 220.279 220.279S377.463 476.279 256 476.279Z"/><path d="M248.425 323.924c-14.153 0-25.61 11.794-25.61 25.946 0 13.817 11.12 25.948 25.61 25.948s25.946-12.131 25.946-25.948c0-14.152-11.794-25.946-25.946-25.946ZM252.805 127.469c-45.492 0-66.384 26.959-66.384 45.155 0 13.142 11.12 19.208 20.218 19.208 18.197 0 10.784-25.948 45.155-25.948 16.848 0 30.328 7.414 30.328 22.915 0 18.196-18.871 28.642-29.991 38.077-9.773 8.423-22.577 22.24-22.577 51.22 0 17.522 4.718 22.577 18.533 22.577 16.511 0 19.881-7.413 19.881-13.817 0-17.522.337-27.631 18.871-42.121 9.098-7.076 37.74-29.991 37.74-61.666 0-31.675-28.642-55.6-71.774-55.6Z"/></svg>

<svg width="512" height="512" viewBox="0 0 512 512" fill="#37352f" xmlns="http://www.w3.org/2000/svg">
<path d="M256 0C114.509 0 0 114.496 0 256C0 397.489 114.496 512 256 512C397.491 512 512 397.504 512 256C512 114.509 397.504 0 256 0ZM256 476.279C134.538 476.279 35.721 377.463 35.721 256C35.721 134.537 134.538 35.721 256 35.721C377.463 35.721 476.279 134.537 476.279 256C476.279 377.463 377.463 476.279 256 476.279Z" fill="#37352f"/>
<path d="M248.425 323.924C234.272 323.924 222.815 335.718 222.815 349.87C222.815 363.687 233.935 375.818 248.425 375.818C262.915 375.818 274.371 363.687 274.371 349.87C274.371 335.718 262.577 323.924 248.425 323.924Z" fill="#37352f"/>
<path d="M252.805 127.469C207.313 127.469 186.421 154.428 186.421 172.624C186.421 185.766 197.541 191.832 206.639 191.832C224.836 191.832 217.423 165.884 251.794 165.884C268.642 165.884 282.122 173.298 282.122 188.799C282.122 206.995 263.251 217.441 252.131 226.876C242.358 235.299 229.554 249.116 229.554 278.096C229.554 295.618 234.272 300.673 248.087 300.673C264.598 300.673 267.968 293.26 267.968 286.856C267.968 269.334 268.305 259.225 286.839 244.735C295.937 237.659 324.579 214.744 324.579 183.069C324.579 151.394 295.937 127.469 252.805 127.469Z" fill="#37352f"/>
</svg>
